X:1
T:Title
%%score 1 { ( 2 7 ) | ( 3 4 5 6 ) }
L:1/8
M:4/4
K:F
V:1 treble nm="Akkordion"
V:2 treble nm="Grand Piano"
V:7 treble 
V:3 bass 
V:4 bass 
V:5 bass 
V:6 bass 
V:1
 z4 z2[Q:1/4=106] (3CDE | F2 A2 G2 (3CDE | F2 A2 G2 (3CDE | F2 G2 A2 B2 | d4 c2 A>A | %5
 c2 B2 ^F2 G>A | c2 B2 ^F2 G>A | c2 B2 G2 E2 | D4 C2 (3CDE | F2 A2 G2 (3CDE | F2 A2 G2 (3CDE | %11
 F2 G2 A2 B2 | =B4 c2 c>c | d2 G2 G2 G>G | c2 F2 F2 F>F | E2 G2 A2 =B2 |[M:3/4] c4 c2 |[M:1/4] z2 | %18
[M:4/4] z8 | z8 |[M:2/4] z4 | z4 |[M:4/4] z8 | z8 |[M:2/4] z4 | z4 |[M:4/4] z8 |[M:3/4] z6 | %28
[M:1/4] z2 |[M:4/4] z8 | z8 |[M:2/4] z4 | z4 |[M:4/4] z8 | z8 |[M:2/4] z4 | z4 |[M:4/4] z8 | %38
[M:3/4] z6 |] %39
V:2
 z4 z2 (3CDE | [A,CF]2 [CFA]2 [B,CEG]2 (3z DE | [F,A,CF]2 [CFA]2 [B,CEG]2 (3z DE | %3
 [A,CF]2 [CG]2 [CFA]2 [GB]2 | [FBd]2 (3[F_A=Bd]dd c2 =A>A | [Ec]2 B2 ^F2 G>A | c2 B2 ^F2 G>A | %7
 c2 B2 G2 E2 | [B,D]2 D2 C2 z2 | [F,A,CF]2 [CFA]2 [B,CEG]2 (3z DE | %10
 [F,A,CF]2 [CFA]2 [B,CEG]2 (3z DE | [F,A,CF]2 [CG]2 [CFA]2 [B,FB]2 | [DF_A=B]2 (3BBB [CF=Ac]2 c>c | %13
 [DFGd]2 [DFG]2 [CEG]2 G>G | [CFc]2 [CF]2 [CF]2 F>F | [CE]2 [EG]2 [=B,FA]2 [G=B]2 | %16
[M:3/4] [CEGc]2 (3ccc [CEGc]2 |[M:1/4] [Ac]>[A^c] |[M:4/4] [DBd]4 z4 | F2 F2 A2 F>A | %20
[M:2/4] [Ec]2 [DEB]2 | [B,EG]2[K:bass] [G,CE]2 | %22
[M:4/4] [F,B,D]2 [F,B,^C]2 [F,A,=C]2[K:treble] [Ac]>[A^c] | [DBd]4 z4 |[M:2/4] [CAc]2 [CFA]2 | %25
 [Ff]4 |[M:4/4] f2 =B>f e2 d>e |[M:3/4] [CEc]6 |[M:1/4] [Ac]>[A^c] |[M:4/4] [DBd]4 z4 | %30
 F2 F2 A2 F>A |[M:2/4] [Ec]2 [DEB]2 | [B,EG]2[K:bass] [G,CE]2 | %33
[M:4/4] [F,B,D]2 [F,B,^C]2 [F,A,=C]2[K:treble] [Ac]>[A^c] | [DBd]4 z4 |[M:2/4] [CAc]2 [CFA]2 | %36
 [Ff]4 |[M:4/4] [FAf]2 [FA]>[Fd] [Ec]2 [EG]>[Ec] |[M:3/4] [A,F]6 |] %39
V:3
 z4 z2 C,2 | [F,,F,]2 [F,,F,]2 z2 (3CB,,G,, | z4 .C,4 | F,,>A,, C,>E, z2 C2 | %4
 B,2 (3z[K:treble] [F_A=B][FAB] [=A,CF=A]2 [CF]>[CF] | C2 [CEG]2 [A,C_E]2 [B,C=E]>[A,CF] | %6
 [CE]2 [CEG]2 [A,C_E]2 [C=E]>[A,CF] | [CE]2 [CE]2 [B,CE]2 [G,C]2 | z2 [_A,=B,]2 =A,2 (3CDE | %9
 z4 .C,4 | z4 .C,4 | F,,2 [E,,E,]2 [_E,,_E,]2 [D,,D,]2 | %12
 z2[K:treble] (3[DF_A][DFA][DFA][K:bass] [=C,,=C,]2 C>C | [=B,,=B,]4 z2 [CE]2 | [A,,A,]4 z2 C2 | %15
 [G,,G,]4 z2 [DF]2 |[M:3/4] z2[K:treble] (3[CEG][CEG][CEG][K:bass] [C,,C,]2 |[M:1/4] C>^C | %18
[M:4/4] C,2 C,2 C,2 D>D | F,2 F,2 [F,A,CF]2 [F,A,C]>[F,C] |[M:2/4] [C,G,]2 C,2 | C,2 C,2 | %22
[M:4/4] F,,2 F,,2 F,,2 C>^C | C,2 C,2 C,2 D>D |[M:2/4] F,2 _E,2 | [D,B,]4 | %26
[M:4/4][K:treble] [G,=B,G]2 [G,DG]>[G,B,A] [G,CG]2 [G,B,F]>[G,B,G] |[M:3/4][K:bass] C,6 | %28
[M:1/4] C>^C |[M:4/4] C,2 C,2 C,2 D>D | F,2 F,2 [F,A,CF]2 [F,A,C]>[F,C] |[M:2/4] [C,G,]2 C,2 | %32
 C,2 C,2 |[M:4/4] F,,2 F,,2 F,,2 C>^C | C,2 C,2 C,2 D>D |[M:2/4] F,2 _E,2 | [D,B,]2 [D,B,]2 | %37
[M:4/4] [C,C]2 [C,C]>[C,B,] [C,B,]2 [C,B,]>[C,B,] |[M:3/4] [F,,F,]6 |] %39
V:4
 x8 | z4 .C,4 | F,,2 [F,,F,]2 z2 (3CB,,G,, | x8 | z2 =B,2[K:treble] z4 | x8 | G,4 z4 | G,4 z4 | %8
 [F,,F,]6 z2 | F,,2 [E,,F,]2 z2 (3CB,,G,, | F,,2 [F,,F,]2 z2 (3CB,,G,, | x8 | %12
 [^C,,^C,]4[K:treble][K:bass] z4 | z4 [_B,,_B,]4 | z4 [_A,,_A,]4 | z4 [G,,G,]4 | %16
[M:3/4] [C,,C,]4[K:treble][K:bass] z2 |[M:1/4] x2 |[M:4/4] x8 | x8 |[M:2/4] x4 | x4 |[M:4/4] x8 | %23
 x8 |[M:2/4] x4 | x4 |[M:4/4][K:treble] x8 |[M:3/4][K:bass] x6 |[M:1/4] x2 |[M:4/4] x8 | x8 | %31
[M:2/4] x4 | x4 |[M:4/4] x8 | x8 |[M:2/4] x4 | x4 |[M:4/4] x8 |[M:3/4] x6 |] %39
V:5
 x8 | x8 | x8 | z4 F,4- | F,6[K:treble] z2 | x8 | x8 | x8 | x8 | x8 | x8 | x8 | %12
 x2[K:treble] x2[K:bass] x4 | x8 | x8 | x8 |[M:3/4] x2[K:treble] x2[K:bass] x2 |[M:1/4] x2 | %18
[M:4/4] x8 | x8 |[M:2/4] x4 | x4 |[M:4/4] x8 | x8 |[M:2/4] x4 | x4 |[M:4/4][K:treble] x8 | %27
[M:3/4][K:bass] x6 |[M:1/4] x2 |[M:4/4] x8 | x8 |[M:2/4] x4 | x4 |[M:4/4] x8 | x8 |[M:2/4] x4 | %36
 x4 |[M:4/4] x8 |[M:3/4] x6 |] %39
V:6
 x8 | x8 | x8 | x8 | z2 _A,2[K:treble] z4 | [C,-G,]4 C,4- | C,8- | C,8 | x8 | x8 | x8 | x8 | %12
 x2[K:treble] x2[K:bass] x4 | x8 | x8 | x8 |[M:3/4] x2[K:treble] x2[K:bass] x2 |[M:1/4] x2 | %18
[M:4/4] x8 | x8 |[M:2/4] x4 | x4 |[M:4/4] x8 | x8 |[M:2/4] x4 | x4 |[M:4/4][K:treble] x8 | %27
[M:3/4][K:bass] x6 |[M:1/4] x2 |[M:4/4] x8 | x8 |[M:2/4] x4 | x4 |[M:4/4] x8 | x8 |[M:2/4] x4 | %36
 x4 |[M:4/4] x8 |[M:3/4] x6 |] %39
V:7
 x8 | x8 | x8 | x8 | x8 | x8 | x8 | x8 | x8 | x8 | x8 | x8 | x8 | x8 | x8 | x8 |[M:3/4] x6 | %17
[M:1/4] x2 |[M:4/4] E2 E2 [G,EG]2 [Bd]>[B^c] | [CAc]4 z4 |[M:2/4] x4 | x2[K:bass] x2 | %22
[M:4/4] x6[K:treble] x2 | E2 E2 [G,EG]2 [Bd]>[B^c] |[M:2/4] x4 | x4 |[M:4/4] x8 |[M:3/4] x6 | %28
[M:1/4] x2 |[M:4/4] E2 E2 [G,EG]2 [Bd]>[B^c] | [CAc]4 z4 |[M:2/4] x4 | x2[K:bass] x2 | %33
[M:4/4] x6[K:treble] x2 | E2 E2 [G,EG]2 [Bd]>[B^c] |[M:2/4] x4 | z2 _A2 |[M:4/4] x8 |[M:3/4] x6 |] %39

